;FLAVOR:UltiGCode
;TIME:16031
;MATERIAL:30577
;MATERIAL2:0
;NOZZLE_DIAMETER:0.4
;MINX:71.295
;MINY:28.795
;MINZ:0.27
;MAXX:151.705
;MAXY:194.205
;MAXZ:5.52
;TARGET_MACHINE.NAME:Ultimaker 2+
;Generated with Cura_SteamEngine 5.5.0
M82 ;absolute extrusion mode
G0 F3000 Y50 ;avoid prime blob
G92 E0
G92 E0
G10
;LAYER_COUNT:36
;LAYER:0
M107
G0 F9000 X72.744 Y33.856 Z0.27
;TYPE:SKIRT
G11
G1 F1800 X76.338 Y30.262 E0.54893
G1 X79.425 Y28.795 E0.91806
G1 X143.115 Y28.795 E7.79658
G1 X146.362 Y29.962 E8.16921
G1 X150.238 Y33.838 E8.76122
G1 X151.705 Y36.925 E9.13034
G1 X151.705 Y185.977 E25.22796
G1 X150.256 Y189.002 E25.59021
G1 X146.52 Y192.738 E26.16082
G1 X143.433 Y194.205 E26.52995
G1 X79.523 Y194.205 E33.43223
G1 X76.498 Y192.756 E33.79448
G1 X72.762 Y189.02 E34.3651
G1 X71.295 Y185.933 E34.73422
G1 X71.295 Y36.881 E50.83184
G1 X72.744 Y33.856 E51.19409
G0 F9000 X73.076 Y34.09
G1 F1800 X76.573 Y30.593 E51.7282
G1 X79.515 Y29.195 E52.07998
G1 X143.047 Y29.195 E58.94144
G1 X146.141 Y30.307 E59.29652
G1 X149.907 Y34.073 E59.87172
G1 X151.305 Y37.015 E60.2235
G1 X151.305 Y185.885 E76.30146
G1 X149.924 Y188.768 E76.64671
G1 X146.285 Y192.407 E77.20251
G1 X143.343 Y193.805 E77.55429
G1 X79.615 Y193.805 E84.43692
G1 X76.732 Y192.424 E84.78216
G1 X73.093 Y188.785 E85.33796
G1 X71.695 Y185.843 E85.68975
G1 X71.695 Y36.973 E101.76771
G1 X73.076 Y34.09 E102.11295
G0 F9000 X73.408 Y34.324
G1 F1800 X76.808 Y30.924 E102.63225
G1 X79.605 Y29.595 E102.96669
G1 X142.979 Y29.595 E109.81108
G1 X145.92 Y30.652 E110.1486
G1 X149.576 Y34.308 E110.707
G1 X150.905 Y37.105 E111.04144
G1 X150.905 Y185.793 E127.09975
G1 X149.592 Y188.534 E127.42799
G1 X146.05 Y192.076 E127.96898
G1 X143.253 Y193.405 E128.30342
G1 X79.707 Y193.405 E135.16639
G1 X76.966 Y192.092 E135.49462
G1 X73.424 Y188.55 E136.03561
G1 X72.095 Y185.753 E136.37005
G1 X72.095 Y37.065 E152.42836
G1 X73.408 Y34.324 E152.7566
G0 F9000 X73.74 Y34.558
G1 F1800 X77.043 Y31.255 E153.26108
G1 X79.695 Y29.995 E153.57818
G1 X142.911 Y29.995 E160.40551
G1 X145.699 Y30.997 E160.72547
G1 X149.245 Y34.543 E161.26707
G1 X150.505 Y37.195 E161.58417
G1 X150.505 Y185.701 E177.62281
G1 X149.26 Y188.3 E177.93405
G1 X145.815 Y191.745 E178.46022
G1 X143.163 Y193.005 E178.77732
G1 X79.799 Y193.005 E185.62063
G1 X77.2 Y191.76 E185.93187
G1 X73.755 Y188.315 E186.45804
G1 X72.495 Y185.663 E186.77514
G1 X72.495 Y37.157 E202.81379
G1 X73.74 Y34.558 E203.12502
G0 F9000 X74.072 Y34.792
G1 F1800 X77.278 Y31.586 E203.61469
G1 X79.785 Y30.395 E203.91445
G1 X142.843 Y30.395 E210.72471
G1 X145.478 Y31.342 E211.02711
G1 X148.914 Y34.778 E211.55191
G1 X150.105 Y37.285 E211.85167
G1 X150.105 Y185.609 E227.87066
G1 X148.928 Y188.066 E228.16489
G1 X145.58 Y191.414 E228.67625
G1 X143.073 Y192.605 E228.976
G1 X79.891 Y192.605 E235.79966
G1 X77.434 Y191.428 E236.09389
G1 X74.086 Y188.08 E236.60525
G1 X72.895 Y185.573 E236.90501
G1 X72.895 Y37.249 E252.924
G1 X74.072 Y34.792 E253.21823
G0 F9000 X74.404 Y35.026
G1 F1800 X77.513 Y31.917 E253.69308
G1 X79.875 Y30.795 E253.9755
G1 X142.775 Y30.795 E260.7687
G1 X145.257 Y31.687 E261.05354
G1 X148.583 Y35.013 E261.56153
G1 X149.705 Y37.375 E261.84395
G1 X149.705 Y185.517 E277.84328
G1 X148.596 Y187.832 E278.12051
G1 X145.345 Y191.083 E278.61705
G1 X142.983 Y192.205 E278.89947
G1 X79.983 Y192.205 E285.70347
G1 X77.668 Y191.096 E285.9807
G1 X74.417 Y187.845 E286.47724
G1 X73.295 Y185.483 E286.75965
G1 X73.295 Y37.341 E302.75899
G1 X74.404 Y35.026 E303.03622
G0 F9000 X74.736 Y35.26
G1 F1800 X77.748 Y32.248 E303.49625
G1 X79.965 Y31.195 E303.76132
G1 X142.707 Y31.195 E310.53746
G1 X145.036 Y32.032 E310.80474
G1 X148.252 Y35.248 E311.29594
G1 X149.305 Y37.465 E311.56101
G1 X149.305 Y185.425 E327.54069
G1 X148.264 Y187.598 E327.80091
G1 X145.11 Y190.752 E328.28264
G1 X142.893 Y191.805 E328.54771
G1 X80.075 Y191.805 E335.33206
G1 X77.902 Y190.764 E335.59228
G1 X74.748 Y187.61 E336.07401
G1 X73.695 Y185.393 E336.33908
G1 X73.695 Y37.433 E352.31876
G1 X74.736 Y35.26 E352.57898
G0 F9000 X75.068 Y35.494
G1 F1800 X77.983 Y32.579 E353.0242
G1 X80.055 Y31.595 E353.27193
G1 X142.639 Y31.595 E360.031
G1 X144.815 Y32.377 E360.28073
G1 X147.921 Y35.483 E360.75512
G1 X148.905 Y37.555 E361.00285
G1 X148.905 Y185.333 E376.96288
G1 X147.932 Y187.364 E377.2061
G1 X144.875 Y190.421 E377.67301
G1 X142.803 Y191.405 E377.92074
G1 X80.167 Y191.405 E384.68542
G1 X78.136 Y190.432 E384.92864
G1 X75.079 Y187.375 E385.39556
G1 X74.095 Y185.303 E385.64328
G1 X74.095 Y37.525 E401.60331
G1 X75.068 Y35.494 E401.84653
G0 F9000 X75.4 Y35.728
G1 F1800 X78.218 Y32.91 E402.27694
G1 X80.145 Y31.995 E402.50732
G1 X142.571 Y31.995 E409.24933
G1 X144.594 Y32.722 E409.48149
G1 X147.59 Y35.718 E409.93909
G1 X148.505 Y37.645 E410.16947
G1 X148.505 Y185.241 E426.10984
G1 X147.6 Y187.13 E426.33606
G1 X144.64 Y190.09 E426.78815
G1 X142.713 Y191.005 E427.01854
G1 X80.259 Y191.005 E433.76357
G1 X78.37 Y190.1 E433.98979
G1 X75.41 Y187.14 E434.44188
G1 X74.495 Y185.213 E434.67227
G1 X74.495 Y37.617 E450.61264
G1 X75.4 Y35.728 E450.83885
G0 F9000 X75.732 Y35.962
G1 F1800 X78.453 Y33.241 E451.25445
G1 X80.235 Y32.395 E451.46749
G1 X142.503 Y32.395 E458.19243
G1 X144.373 Y33.067 E458.40704
G1 X147.259 Y35.953 E458.84783
G1 X148.105 Y37.735 E459.06088
G1 X148.105 Y185.149 E474.98159
G1 X147.268 Y186.896 E475.1908
G1 X144.405 Y189.759 E475.62808
G1 X142.623 Y190.605 E475.84112
G1 X80.351 Y190.605 E482.5665
G1 X78.604 Y189.768 E482.77571
G1 X75.741 Y186.905 E483.21299
G1 X74.895 Y185.123 E483.42604
G1 X74.895 Y37.709 E499.34675
G1 X75.732 Y35.962 E499.55596
G0 F9000 X76.064 Y36.196
G1 F1800 X78.688 Y33.572 E499.95674
G1 X80.325 Y32.795 E500.15244
G1 X142.435 Y32.795 E506.86032
G1 X144.152 Y33.412 E507.05736
G1 X146.928 Y36.188 E507.48136
G1 X147.705 Y37.825 E507.67706
G1 X147.705 Y185.057 E523.57811
G1 X146.936 Y186.662 E523.77032
G1 X144.17 Y189.428 E524.19279
G1 X142.533 Y190.205 E524.38849
G1 X80.443 Y190.205 E531.09421
G1 X78.838 Y189.436 E531.28642
G1 X76.072 Y186.67 E531.70888
G1 X75.295 Y185.033 E531.90458
G1 X75.295 Y37.801 E547.80564
G1 X76.064 Y36.196 E547.99785
G0 F9000 X76.396 Y36.43
G1 F1800 X78.924 Y33.902 E548.38396
G1 X80.414 Y33.195 E548.56208
G1 X142.367 Y33.195 E555.253
G1 X143.931 Y33.757 E555.43249
G1 X146.598 Y36.424 E555.83983
G1 X147.305 Y37.914 E556.01795
G1 X147.305 Y184.965 E571.89946
G1 X146.604 Y186.428 E572.07466
G1 X143.934 Y189.098 E572.48247
G1 X142.444 Y189.805 E572.66058
G1 X80.535 Y189.805 E579.34676
G1 X79.072 Y189.104 E579.52196
G1 X76.402 Y186.434 E579.92976
G1 X75.695 Y184.944 E580.10788
G1 X75.695 Y37.893 E595.98939
G1 X76.396 Y36.43 E596.16459
G0 F9000 X76.728 Y36.664
G1 F1800 X79.16 Y34.232 E596.53605
G1 X80.503 Y33.595 E596.69658
G1 X142.299 Y33.595 E603.37055
G1 X143.71 Y34.102 E603.53247
G1 X146.268 Y36.66 E603.92317
G1 X146.905 Y38.003 E604.0837
G1 X146.905 Y184.873 E619.94566
G1 X146.272 Y186.194 E620.10386
G1 X143.698 Y188.768 E620.497
G1 X142.355 Y189.405 E620.65754
G1 X80.627 Y189.405 E627.32416
G1 X79.306 Y188.772 E627.48236
G1 X76.732 Y186.198 E627.8755
G1 X76.095 Y184.855 E628.03603
G1 X76.095 Y37.985 E643.89799
G1 X76.728 Y36.664 E644.0562
G0 F9000 X77.06 Y36.898
G1 F1800 X79.396 Y34.562 E644.41298
G1 X80.592 Y33.995 E644.55593
G1 X142.231 Y33.995 E651.21294
G1 X143.489 Y34.447 E651.35731
G1 X145.938 Y36.896 E651.73136
G1 X146.505 Y38.092 E651.87431
G1 X146.505 Y184.781 E667.71672
G1 X145.94 Y185.96 E667.85792
G1 X143.462 Y188.438 E668.2364
G1 X142.266 Y189.005 E668.37934
G1 X80.719 Y189.005 E675.02642
G1 X79.54 Y188.44 E675.16762
G1 X77.062 Y185.962 E675.5461
G1 X76.495 Y184.766 E675.68904
G1 X76.495 Y38.077 E691.53146
G1 X77.06 Y36.898 E691.67265
G0 F9000 X77.392 Y37.132
G1 F1800 X79.632 Y34.892 E692.01478
G1 X80.681 Y34.395 E692.14015
G1 X142.163 Y34.395 E698.7802
G1 X143.268 Y34.792 E698.90701
G1 X145.608 Y37.132 E699.26441
G1 X146.105 Y38.181 E699.38977
G1 X146.105 Y184.689 E715.21264
G1 X145.608 Y185.726 E715.33683
G1 X143.226 Y188.108 E715.70065
G1 X142.177 Y188.605 E715.82601
G1 X80.811 Y188.605 E722.45354
G1 X79.774 Y188.108 E722.57773
G1 X77.392 Y185.726 E722.94155
G1 X76.895 Y184.677 E723.06691
G1 X76.895 Y38.169 E738.88978
G1 X77.392 Y37.132 E739.01397
G0 F9000 X77.724 Y37.366
G1 F1800 X79.866 Y35.224 E739.34113
G1 X80.772 Y34.795 E739.44939
G1 X142.095 Y34.795 E746.07228
G1 X143.047 Y35.137 E746.18153
G1 X145.276 Y37.366 E746.52197
G1 X145.705 Y38.272 E746.63024
G1 X145.705 Y184.597 E762.43334
G1 X145.276 Y185.492 E762.54053
G1 X142.992 Y187.776 E762.88937
G1 X142.086 Y188.205 E762.99764
G1 X80.903 Y188.205 E769.6054
G1 X80.008 Y187.776 E769.71259
G1 X77.724 Y185.492 E770.06144
G1 X77.295 Y184.586 E770.1697
G1 X77.295 Y38.261 E785.9728
G1 X77.724 Y37.366 E786.07999
G0 F9000 X78.056 Y37.6
G1 F1800 X80.1 Y35.556 E786.39218
G1 X80.863 Y35.195 E786.48334
G1 X142.027 Y35.195 E793.08906
G1 X142.826 Y35.482 E793.18075
G1 X144.944 Y37.6 E793.50424
G1 X145.305 Y38.363 E793.5954
G1 X145.305 Y184.505 E809.37874
G1 X144.944 Y185.258 E809.46892
G1 X142.758 Y187.444 E809.8028
G1 X141.995 Y187.805 E809.89396
G1 X80.995 Y187.805 E816.48196
G1 X80.242 Y187.444 E816.57215
G1 X78.056 Y185.258 E816.90603
G1 X77.695 Y184.495 E816.99719
G1 X77.695 Y38.353 E832.78053
G1 X78.056 Y37.6 E832.87071
G0 F9000 X78.388 Y37.834
G1 F1800 X80.334 Y35.888 E833.16794
G1 X80.954 Y35.595 E833.242
G1 X141.959 Y35.595 E839.83054
G1 X142.605 Y35.827 E839.90467
G1 X144.612 Y37.834 E840.21121
G1 X144.905 Y38.454 E840.28527
G1 X144.905 Y184.413 E856.04884
G1 X144.612 Y185.024 E856.12202
G1 X142.524 Y187.112 E856.44093
G1 X141.904 Y187.405 E856.51499
G1 X81.087 Y187.405 E863.08323
G1 X80.476 Y187.112 E863.15641
G1 X78.388 Y185.024 E863.47532
G1 X78.095 Y184.404 E863.54938
G1 X78.095 Y38.445 E879.31296
G1 X78.388 Y37.834 E879.38614
G0 F9000 X78.954 Y38.4
G1 F1800 X80.9 Y36.454 E879.68336
G1 X81.041 Y36.395 E879.69987
G1 X141.959 Y36.395 E886.27901
G1 X142.1 Y36.454 E886.29552
G1 X144.046 Y38.4 E886.59274
G1 X144.105 Y38.541 E886.60925
G1 X144.105 Y184.317 E902.35306
G1 X144.046 Y184.458 E902.36957
G1 X141.958 Y186.546 E902.68848
G1 X141.817 Y186.605 E902.70498
G1 X81.183 Y186.605 E909.25346
G1 X81.042 Y186.546 E909.26996
G1 X78.954 Y184.458 E909.58887
G1 X78.895 Y184.317 E909.60538
G1 X78.895 Y38.541 E925.34919
G1 X78.954 Y38.4 E925.3657
G0 F9000 X78.495 Y38.445
G1 F1800 X78.671 Y38.117 E925.4059
G1 X80.617 Y36.171 E925.70312
G1 X81.041 Y35.995 E925.7527
G1 X141.959 Y35.995 E932.33185
G1 X142.383 Y36.171 E932.38143
G1 X144.329 Y38.117 E932.67865
G1 X144.505 Y38.541 E932.72823
G1 X144.505 Y184.413 E948.48241
G1 X144.329 Y184.741 E948.52261
G1 X142.241 Y186.829 E948.84152
G1 X141.817 Y187.005 E948.8911
G1 X81.087 Y187.005 E955.44994
G1 X80.759 Y186.829 E955.49014
G1 X78.671 Y184.741 E955.80905
G1 X78.495 Y184.317 E955.85863
G1 X78.495 Y38.445 E971.61281
G10
;MESH:kotelokansi.stl
G0 F9000 X79.815 Y38.841
G0 X141.733 Y186.205
;TYPE:WALL-OUTER
G11
G1 F1800 X143.705 Y184.233 E971.94412
G1 X143.705 Y38.625 E989.24235
G1 X141.875 Y36.795 E989.54981
G1 X81.125 Y36.795 E996.76691
G1 X79.295 Y38.625 E997.07436
G1 X79.295 Y184.233 E1014.37259
G1 X81.267 Y186.205 E1014.7039
G1 X141.733 Y186.205 E1021.88727
G0 F9000 X141.874 Y186.064
G0 X141.567 Y185.805
;TYPE:WALL-INNER
G1 F1800 X143.305 Y184.067 E1022.13945
G1 X143.305 Y38.791 E1037.04476
G1 X141.709 Y37.195 E1037.27634
G1 X81.291 Y37.195 E1043.47523
G1 X79.695 Y38.791 E1043.7068
G1 X79.695 Y184.067 E1058.61212
G1 X81.433 Y185.805 E1058.8643
G1 X141.567 Y185.805 E1065.03405
G0 F9000 X141.433 Y185.485
;TYPE:SKIN
G1 F1800 X142.985 Y183.933 E1065.24798
G1 X142.985 Y38.925 E1079.38191
G1 X141.575 Y37.515 E1079.57627
G1 X81.425 Y37.515 E1085.43909
G1 X80.015 Y38.925 E1085.63345
G1 X80.015 Y183.933 E1099.76738
G1 X81.567 Y185.485 E1099.98132
G1 X141.433 Y185.485 E1105.81645
G10
G0 F9000 X141.433 Y185.785
G0 X81.468 Y185.721
G0 X79.779 Y184.032
G0 X80.214 Y183.734
G11
G1 F1800 X81.763 Y185.283 E1106.02997
G0 F9000 X82.329 Y185.283
G1 F1800 X80.214 Y183.168 E1106.32151
G0 F9000 X80.214 Y182.603
G1 F1800 X82.894 Y185.283 E1106.69093
G0 F9000 X83.46 Y185.283
G1 F1800 X80.214 Y182.037 E1107.13837
G0 F9000 X80.214 Y181.471
G1 F1800 X84.026 Y185.283 E1107.66383
G0 F9000 X84.591 Y185.283
G1 F1800 X80.214 Y180.906 E1108.26717
G0 F9000 X80.214 Y180.34
G1 F1800 X85.157 Y185.283 E1108.94853
G0 F9000 X85.723 Y185.283
G1 F1800 X80.214 Y179.774 E1109.70791
G0 F9000 X80.214 Y179.209
G1 F1800 X86.288 Y185.283 E1110.54517
G0 F9000 X86.854 Y185.283
G1 F1800 X80.214 Y178.643 E1111.46045
G0 F9000 X80.214 Y178.077
G1 F1800 X87.42 Y185.283 E1112.45375
G0 F9000 X87.986 Y185.283
G1 F1800 X80.214 Y177.512 E1113.525
G0 F9000 X80.214 Y176.946
G1 F1800 X88.551 Y185.283 E1114.6742
G0 F9000 X89.117 Y185.283
G1 F1800 X80.214 Y176.38 E1115.90142
G0 F9000 X80.214 Y175.815
G1 F1800 X89.683 Y185.283 E1117.20659
G0 F9000 X90.248 Y185.283
G1 F1800 X80.214 Y175.249 E1118.58971
G0 F9000 X80.214 Y174.683
G1 F1800 X90.814 Y185.283 E1120.05085
G0 F9000 X91.38 Y185.283
G1 F1800 X80.214 Y174.117 E1121.59001
G0 F9000 X80.214 Y173.552
G1 F1800 X91.945 Y185.283 E1123.20705
G0 F9000 X92.511 Y185.283
G1 F1800 X80.214 Y172.986 E1124.90211
G0 F9000 X80.214 Y172.42
G1 F1800 X93.077 Y185.283 E1126.67519
G0 F9000 X93.642 Y185.283
G1 F1800 X80.214 Y171.855 E1128.52615
G0 F9000 X80.214 Y171.289
G1 F1800 X94.208 Y185.283 E1130.45513
G0 F9000 X94.774 Y185.283
G1 F1800 X80.214 Y170.723 E1132.46213
G0 F9000 X80.214 Y170.158
G1 F1800 X95.339 Y185.283 E1134.54702
G0 F9000 X95.905 Y185.283
G1 F1800 X80.214 Y169.592 E1136.70992
G0 F9000 X80.214 Y169.026
G1 F1800 X96.471 Y185.283 E1138.95084
G0 F9000 X97.036 Y185.283
G1 F1800 X80.214 Y168.461 E1141.26964
G0 F9000 X80.214 Y167.895
G1 F1800 X97.602 Y185.283 E1143.66646
G0 F9000 X98.168 Y185.283
G1 F1800 X80.214 Y167.329 E1146.1413
G0 F9000 X80.214 Y166.764
G1 F1800 X98.734 Y185.283 E1148.69409
G0 F9000 X99.299 Y185.283
G1 F1800 X80.214 Y166.198 E1151.32483
G0 F9000 X80.214 Y165.632
G1 F1800 X99.865 Y185.283 E1154.03359
G0 F9000 X100.431 Y185.283
G1 F1800 X80.214 Y165.067 E1156.8203
G0 F9000 X80.214 Y164.501
G1 F1800 X100.996 Y185.283 E1159.68496
G0 F9000 X101.562 Y185.283
G1 F1800 X80.214 Y163.935 E1162.62765
G0 F9000 X80.214 Y163.369
G1 F1800 X102.128 Y185.283 E1165.64835
G0 F9000 X102.693 Y185.283
G1 F1800 X80.214 Y162.804 E1168.74693
G0 F9000 X80.214 Y162.238
G1 F1800 X103.259 Y185.283 E1171.92353
G0 F9000 X103.825 Y185.283
G1 F1800 X80.214 Y161.672 E1175.17815
G0 F9000 X80.214 Y161.107
G1 F1800 X104.39 Y185.283 E1178.51065
G0 F9000 X104.956 Y185.283
G1 F1800 X80.214 Y160.541 E1181.92117
G0 F9000 X80.214 Y159.975
G1 F1800 X105.522 Y185.283 E1185.40971
G0 F9000 X106.087 Y185.283
G1 F1800 X80.214 Y159.41 E1188.97613
G0 F9000 X80.214 Y158.844
G1 F1800 X106.653 Y185.283 E1192.62058
G0 F9000 X107.219 Y185.283
G1 F1800 X80.214 Y158.278 E1196.34304
G0 F9000 X80.214 Y157.713
G1 F1800 X107.784 Y185.283 E1200.14338
G0 F9000 X108.35 Y185.283
G1 F1800 X80.214 Y157.147 E1204.02174
G0 F9000 X80.214 Y156.581
G1 F1800 X108.916 Y185.283 E1207.97812
G0 F9000 X109.482 Y185.283
G1 F1800 X80.214 Y156.016 E1212.01245
G0 F9000 X80.214 Y155.45
G1 F1800 X110.047 Y185.283 E1216.12474
G0 F9000 X110.613 Y185.283
G1 F1800 X80.214 Y154.884 E1220.31504
G0 F9000 X80.214 Y154.318
G1 F1800 X111.179 Y185.283 E1224.58336
G0 F9000 X111.744 Y185.283
G1 F1800 X80.214 Y153.753 E1228.92956
G0 F9000 X80.214 Y153.187
G1 F1800 X112.31 Y185.283 E1233.35378
G0 F9000 X112.876 Y185.283
G1 F1800 X80.214 Y152.621 E1237.85602
G0 F9000 X80.214 Y152.056
G1 F1800 X113.441 Y185.283 E1242.43615
G0 F9000 X114.007 Y185.283
G1 F1800 X80.214 Y151.49 E1247.09429
G0 F9000 X80.214 Y150.924
G1 F1800 X114.573 Y185.283 E1251.83045
G0 F9000 X115.138 Y185.283
G1 F1800 X80.214 Y150.359 E1256.64449
G0 F9000 X80.214 Y149.793
G1 F1800 X115.704 Y185.283 E1261.53655
G0 F9000 X116.27 Y185.283
G1 F1800 X80.214 Y149.227 E1266.50664
G0 F9000 X80.214 Y148.662
G1 F1800 X116.835 Y185.283 E1271.5546
G0 F9000 X117.401 Y185.283
G1 F1800 X80.214 Y148.096 E1276.68058
G0 F9000 X80.214 Y147.53
G1 F1800 X117.967 Y185.283 E1281.88458
G0 F9000 X118.533 Y185.283
