;FLAVOR:UltiGCode
;TIME:24815
;MATERIAL:48878
;MATERIAL2:0
;NOZZLE_DIAMETER:0.4
;MINX:93.803
;MINY:26.171
;MINZ:0.27
;MAXX:173.772
;MAXY:191.14
;MAXZ:29.97
;TARGET_MACHINE.NAME:Ultimaker 2+
;Generated with Cura_SteamEngine 5.5.0
M82 ;absolute extrusion mode
G0 F3000 Y50 ;avoid prime blob
G92 E0
G92 E0
G10
;LAYER_COUNT:199
;LAYER:0
M107
G0 F9000 X93.803 Y33.959 Z0.27
;TYPE:SKIRT
G11
G1 F1800 X95.252 Y30.934 E0.36225
G1 X98.547 Y27.639 E0.86551
G1 X101.634 Y26.172 E1.23464
G1 X165.623 Y26.171 E8.14545
G1 X168.87 Y27.338 E8.51809
G1 X172.305 Y30.773 E9.04273
G1 X173.772 Y33.86 E9.41186
G1 X173.772 Y183.496 E25.57255
G1 X172.323 Y186.521 E25.93479
G1 X169.171 Y189.673 E26.41621
G1 X166.084 Y191.14 E26.78534
G1 X101.59 Y191.14 E33.75069
G1 X98.565 Y189.691 E34.11294
G1 X95.271 Y186.397 E34.61605
G1 X93.804 Y183.31 E34.98518
G1 X93.803 Y33.959 E51.11508
G0 F9000 X94.203 Y34.051
G1 F1800 X95.584 Y31.168 E51.46033
G1 X98.782 Y27.97 E51.94877
G1 X101.724 Y26.572 E52.30056
G1 X165.555 Y26.571 E59.19431
G1 X168.649 Y27.683 E59.54938
G1 X171.974 Y31.008 E60.05723
G1 X173.372 Y33.95 E60.40901
G1 X173.372 Y183.404 E76.55004
G1 X171.991 Y186.287 E76.89529
G1 X168.936 Y189.342 E77.36189
G1 X165.994 Y190.74 E77.71368
G1 X101.682 Y190.74 E84.65937
G1 X98.799 Y189.359 E85.00462
G1 X95.602 Y186.162 E85.49291
G1 X94.204 Y183.22 E85.84469
G1 X94.203 Y34.051 E101.95495
G0 F9000 X94.603 Y34.143
G1 F1800 X95.916 Y31.402 E102.28319
G1 X99.017 Y28.301 E102.75682
G1 X101.814 Y26.972 E103.09126
G1 X165.487 Y26.971 E109.96794
G1 X168.428 Y28.028 E110.30546
G1 X171.643 Y31.243 E110.79651
G1 X172.972 Y34.04 E111.13095
G1 X172.972 Y183.312 E127.25232
G1 X171.659 Y186.053 E127.58056
G1 X168.701 Y189.011 E128.03235
G1 X165.904 Y190.34 E128.36679
G1 X101.774 Y190.34 E135.29283
G1 X99.033 Y189.027 E135.62107
G1 X95.933 Y185.927 E136.09455
G1 X94.604 Y183.13 E136.42899
G1 X94.603 Y34.143 E152.51959
G0 F9000 X95.003 Y34.235
G1 F1800 X96.248 Y31.636 E152.83083
G1 X99.252 Y28.632 E153.28964
G1 X101.904 Y27.372 E153.60674
G1 X165.419 Y27.371 E160.46636
G1 X168.207 Y28.373 E160.78632
G1 X171.312 Y31.478 E161.26056
G1 X172.572 Y34.13 E161.57766
G1 X172.572 Y183.22 E177.67938
G1 X171.327 Y185.819 E177.99062
G1 X168.466 Y188.68 E178.42759
G1 X165.814 Y189.94 E178.74469
G1 X101.866 Y189.94 E185.65108
G1 X99.267 Y188.695 E185.96231
G1 X96.264 Y185.692 E186.42098
G1 X95.004 Y183.04 E186.73807
G1 X95.003 Y34.235 E202.80901
G0 F9000 X95.403 Y34.327
G1 F1800 X96.58 Y31.87 E203.10325
G1 X99.487 Y28.963 E203.54725
G1 X101.994 Y27.772 E203.847
G1 X165.351 Y27.771 E210.68956
G1 X167.986 Y28.718 E210.99196
G1 X170.981 Y31.713 E211.4494
G1 X172.172 Y34.22 E211.74916
G1 X172.172 Y183.128 E227.83122
G1 X170.995 Y185.585 E228.12545
G1 X168.231 Y188.349 E228.54761
G1 X165.724 Y189.54 E228.84737
G1 X101.958 Y189.54 E235.7341
G1 X99.501 Y188.363 E236.02833
G1 X96.595 Y185.457 E236.47218
G1 X95.404 Y182.95 E236.77193
G1 X95.403 Y34.327 E252.82322
G0 F9000 X95.803 Y34.419
G1 F1800 X96.912 Y32.104 E253.10045
G1 X99.722 Y29.294 E253.52963
G1 X102.084 Y28.172 E253.81205
G1 X165.283 Y28.171 E260.63754
G1 X167.765 Y29.063 E260.92238
G1 X170.65 Y31.948 E261.36302
G1 X171.772 Y34.31 E261.64543
G1 X171.772 Y183.036 E277.70784
G1 X170.663 Y185.351 E277.98507
G1 X167.996 Y188.018 E278.39241
G1 X165.634 Y189.14 E278.67483
G1 X102.05 Y189.14 E285.5419
G1 X99.735 Y188.031 E285.81913
G1 X96.926 Y185.222 E286.24816
G1 X95.804 Y182.86 E286.53057
G1 X95.803 Y34.419 E302.5622
G0 F9000 X96.203 Y34.511
G1 F1800 X97.244 Y32.338 E302.82243
G1 X99.957 Y29.625 E303.2368
G1 X102.174 Y28.572 E303.50187
G1 X165.215 Y28.571 E310.3103
G1 X167.544 Y29.408 E310.57758
G1 X170.319 Y32.183 E311.00142
G1 X171.372 Y34.4 E311.26649
G1 X171.372 Y182.944 E327.30924
G1 X170.331 Y185.117 E327.56947
G1 X167.761 Y187.687 E327.96199
G1 X165.544 Y188.74 E328.22707
G1 X102.142 Y188.74 E335.07448
G1 X99.969 Y187.699 E335.33471
G1 X97.257 Y184.987 E335.74892
G1 X96.204 Y182.77 E336.01399
G1 X96.203 Y34.511 E352.02597
G0 F9000 X96.603 Y34.603
G1 F1800 X97.576 Y32.572 E352.26919
G1 X100.192 Y29.956 E352.66874
G1 X102.264 Y28.972 E352.91647
G1 X165.147 Y28.971 E359.70783
G1 X167.323 Y29.753 E359.95756
G1 X169.988 Y32.418 E360.3646
G1 X170.972 Y34.49 E360.61233
G1 X170.972 Y182.852 E376.63542
G1 X169.999 Y184.883 E376.87864
G1 X167.526 Y187.356 E377.25636
G1 X165.454 Y188.34 E377.50408
G1 X102.234 Y188.34 E384.33184
G1 X100.203 Y187.367 E384.57506
G1 X97.588 Y184.752 E384.97447
G1 X96.604 Y182.68 E385.2222
G1 X96.603 Y34.603 E401.21451
G0 F9000 X97.003 Y34.695
G1 F1800 X97.908 Y32.806 E401.44073
G1 X100.427 Y30.287 E401.82547
G1 X102.354 Y29.372 E402.05585
G1 X165.079 Y29.371 E408.83015
G1 X167.102 Y30.098 E409.06232
G1 X169.657 Y32.653 E409.45256
G1 X170.572 Y34.58 E409.68294
G1 X170.572 Y182.76 E425.68638
G1 X169.667 Y184.649 E425.9126
G1 X167.291 Y187.025 E426.2755
G1 X165.364 Y187.94 E426.50588
G1 X102.326 Y187.94 E433.31399
G1 X100.437 Y187.035 E433.5402
G1 X97.919 Y184.517 E433.92479
G1 X97.004 Y182.59 E434.15518
G1 X97.003 Y34.695 E450.12784
G0 F9000 X97.403 Y34.787
G1 F1800 X98.24 Y33.04 E450.33705
G1 X100.662 Y30.618 E450.70697
G1 X102.444 Y29.772 E450.92002
G1 X165.011 Y29.771 E457.67725
G1 X166.881 Y30.443 E457.89186
G1 X169.326 Y32.888 E458.26529
G1 X170.172 Y34.67 E458.47834
G1 X170.172 Y182.668 E474.46212
G1 X169.335 Y184.415 E474.67133
G1 X167.056 Y186.694 E475.01942
G1 X165.274 Y187.54 E475.23246
G1 X102.418 Y187.54 E482.02091
G1 X100.671 Y186.703 E482.23012
G1 X98.25 Y184.282 E482.59989
G1 X97.404 Y182.5 E482.81294
G1 X97.403 Y34.787 E498.76594
G0 F9000 X97.803 Y34.879
G1 F1800 X98.572 Y33.274 E498.95815
G1 X100.897 Y30.949 E499.31326
G1 X102.534 Y30.172 E499.50896
G1 X164.943 Y30.171 E506.24913
G1 X166.66 Y30.788 E506.44618
G1 X168.995 Y33.123 E506.80281
G1 X169.772 Y34.76 E506.99851
G1 X169.772 Y182.576 E522.96264
G1 X169.003 Y184.181 E523.15485
G1 X166.821 Y186.363 E523.48812
G1 X165.184 Y187.14 E523.68382
G1 X102.51 Y187.14 E530.45261
G1 X100.905 Y186.371 E530.64482
G1 X98.581 Y184.047 E530.99978
G1 X97.804 Y182.41 E531.19548
G1 X97.803 Y34.879 E547.12883
G0 F9000 X98.203 Y34.971
G1 F1800 X98.904 Y33.508 E547.30403
G1 X101.133 Y31.279 E547.64448
G1 X102.623 Y30.572 E547.82259
G1 X164.875 Y30.571 E554.54581
G1 X166.439 Y31.133 E554.7253
G1 X168.665 Y33.359 E555.06528
G1 X169.372 Y34.849 E555.2434
G1 X169.372 Y182.484 E571.18798
G1 X168.671 Y183.947 E571.36319
G1 X166.585 Y186.033 E571.68179
G1 X165.095 Y186.74 E571.85991
G1 X102.602 Y186.74 E578.60915
G1 X101.139 Y186.039 E578.78436
G1 X98.911 Y183.811 E579.12465
G1 X98.204 Y182.321 E579.30277
G1 X98.203 Y34.971 E595.21657
G0 F9000 X98.603 Y35.063
G1 F1800 X99.236 Y33.742 E595.37477
G1 X101.369 Y31.609 E595.70055
G1 X102.712 Y30.972 E595.86109
G1 X164.807 Y30.971 E602.56735
G1 X166.218 Y31.478 E602.72927
G1 X168.335 Y33.595 E603.05261
G1 X168.972 Y34.938 E603.21315
G1 X168.972 Y182.392 E619.13818
G1 X168.339 Y183.713 E619.29638
G1 X166.349 Y185.703 E619.60032
G1 X165.006 Y186.34 E619.76085
G1 X102.694 Y186.34 E626.49055
G1 X101.373 Y185.707 E626.64875
G1 X99.241 Y183.575 E626.97438
G1 X98.604 Y182.232 E627.13492
G1 X98.603 Y35.063 E643.02917
G0 F9000 X99.003 Y35.155
G1 F1800 X99.568 Y33.976 E643.17037
G1 X101.605 Y31.939 E643.48149
G1 X102.801 Y31.372 E643.62444
G1 X164.739 Y31.371 E650.31374
G1 X165.997 Y31.823 E650.45811
G1 X168.005 Y33.831 E650.7648
G1 X168.572 Y35.027 E650.90775
G1 X168.572 Y182.3 E666.81323
G1 X168.007 Y183.479 E666.95443
G1 X166.113 Y185.373 E667.24371
G1 X164.917 Y185.94 E667.38666
G1 X102.786 Y185.94 E674.09681
G1 X101.607 Y185.375 E674.238
G1 X99.571 Y183.339 E674.54897
G1 X99.004 Y182.143 E674.69192
G1 X99.003 Y35.155 E690.56662
G0 F9000 X99.403 Y35.247
G1 F1800 X99.9 Y34.21 E690.69082
G1 X101.841 Y32.269 E690.98728
G1 X102.89 Y31.772 E691.11264
G1 X164.671 Y31.771 E697.78499
G1 X165.776 Y32.168 E697.9118
G1 X167.675 Y34.067 E698.20184
G1 X168.172 Y35.116 E698.32721
G1 X168.172 Y182.208 E714.21314
G1 X167.675 Y183.245 E714.33734
G1 X165.877 Y185.043 E714.61195
G1 X164.828 Y185.54 E714.73732
G1 X102.878 Y185.54 E721.42792
G1 X101.841 Y185.043 E721.55211
G1 X99.901 Y183.103 E721.84842
G1 X99.404 Y182.054 E721.97378
G1 X99.403 Y35.247 E737.82894
G0 F9000 X99.803 Y35.339
G1 F1800 X100.232 Y34.444 E737.93613
G1 X102.075 Y32.601 E738.21762
G1 X102.981 Y32.172 E738.32588
G1 X164.603 Y32.171 E744.98106
G1 X165.555 Y32.513 E745.09031
G1 X167.343 Y34.301 E745.3634
G1 X167.772 Y35.207 E745.47166
G1 X167.772 Y182.116 E761.33783
G1 X167.343 Y183.011 E761.44502
G1 X165.643 Y184.711 E761.70467
G1 X164.737 Y185.14 E761.81294
G1 X102.97 Y185.14 E768.48377
G1 X102.075 Y184.711 E768.59096
G1 X100.233 Y182.869 E768.8723
G1 X99.804 Y181.963 E768.98057
G1 X99.803 Y35.339 E784.81596
G0 F9000 X100.203 Y35.431
G1 F1800 X100.564 Y34.678 E784.90614
G1 X102.309 Y32.933 E785.17267
G1 X103.072 Y32.572 E785.26383
G1 X164.535 Y32.571 E791.90183
G1 X165.334 Y32.858 E791.99352
G1 X167.011 Y34.535 E792.24966
G1 X167.372 Y35.298 E792.34082
G1 X167.372 Y182.024 E808.18723
G1 X167.011 Y182.777 E808.27742
G1 X165.409 Y184.379 E808.5221
G1 X164.646 Y184.74 E808.61326
G1 X103.062 Y184.74 E815.26433
G1 X102.309 Y184.379 E815.35452
G1 X100.565 Y182.635 E815.62089
G1 X100.204 Y181.872 E815.71205
G1 X100.203 Y35.431 E831.52768
G0 F9000 X100.603 Y35.523
G1 F1800 X100.896 Y34.912 E831.60086
G1 X102.543 Y33.265 E831.85242
G1 X103.163 Y32.972 E831.92648
G1 X164.467 Y32.971 E838.54731
G1 X165.113 Y33.203 E838.62144
G1 X166.679 Y34.769 E838.86062
G1 X166.972 Y35.389 E838.93468
G1 X166.972 Y181.932 E854.76133
G1 X166.679 Y182.543 E854.83451
G1 X165.175 Y184.047 E855.06422
G1 X164.555 Y184.34 E855.13828
G1 X103.154 Y184.34 E861.76959
G1 X102.543 Y184.047 E861.84278
G1 X100.897 Y182.401 E862.09418
G1 X100.604 Y181.781 E862.16824
G1 X100.603 Y35.523 E877.9641
G0 F9000 X101.403 Y35.619
G1 F1800 X101.462 Y35.478 E877.98061
G1 X103.109 Y33.831 E878.23216
G1 X103.25 Y33.772 E878.24867
G1 X164.467 Y33.771 E884.86011
G1 X164.608 Y33.83 E884.87661
G1 X166.113 Y35.335 E885.10648
G1 X166.172 Y35.476 E885.12299
G1 X166.172 Y181.836 E900.92987
G1 X166.113 Y181.977 E900.94638
G1 X164.609 Y183.481 E901.17609
G1 X164.468 Y183.54 E901.1926
G1 X103.25 Y183.54 E907.80414
G1 X103.109 Y183.481 E907.82065
G1 X101.463 Y181.835 E908.07205
G1 X101.404 Y181.694 E908.08856
G1 X101.403 Y35.619 E923.86466
G0 F9000 X101.003 Y35.523
G1 F1800 X101.179 Y35.195 E923.90486
G1 X102.826 Y33.548 E924.15641
G1 X103.25 Y33.372 E924.20599
G1 X164.467 Y33.371 E930.81743
G1 X164.891 Y33.547 E930.86701
G1 X166.396 Y35.052 E931.09688
G1 X166.572 Y35.476 E931.14646
G1 X166.572 Y181.932 E946.9637
G1 X166.396 Y182.26 E947.00391
G1 X164.892 Y183.764 E947.23362
G1 X164.468 Y183.94 E947.2832
G1 X103.154 Y183.94 E953.90511
G1 X102.826 Y183.764 E953.94531
G1 X101.18 Y182.118 E954.19672
G1 X101.004 Y181.694 E954.2463
G1 X101.003 Y35.523 E970.03276
G10
;MESH:kotelo9000.stl
G0 F9000 X102.323 Y35.919
G0 X103.334 Y183.14
;TYPE:WALL-OUTER
G11
G1 F1800 X164.384 Y183.14 E977.2855
G1 X165.772 Y181.752 E977.5187
G1 X165.772 Y35.56 E994.88631
G1 X164.383 Y34.171 E995.11967
G1 X103.334 Y34.172 E1002.37229
G1 X101.803 Y35.703 E1002.62952
G1 X101.804 Y181.61 E1019.96327
G1 X103.334 Y183.14 E1020.22032
G0 F9000 X103.534 Y183.14
G0 X103.5 Y182.74
;TYPE:WALL-INNER
G1 F1800 X164.218 Y182.74 E1026.44999
G1 X165.372 Y181.586 E1026.61743
G1 X165.372 Y35.726 E1041.58267
G1 X164.217 Y34.571 E1041.75026
G1 X103.5 Y34.572 E1047.97982
G1 X102.203 Y35.869 E1048.16801
G1 X102.204 Y181.444 E1063.10401
G1 X103.5 Y182.74 E1063.29205
G0 F9000 X103.634 Y182.42
;TYPE:SKIN
G1 F1800 X164.084 Y182.42 E1069.18412
G1 X165.052 Y181.452 E1069.31755
G1 X165.052 Y35.86 E1083.5084
G1 X164.083 Y34.891 E1083.64197
G1 X103.634 Y34.892 E1089.53393
G1 X102.523 Y36.003 E1089.68708
G1 X102.524 Y181.31 E1103.85015
G1 X103.634 Y182.42 E1104.00316
G0 F9000 X103.634 Y182.72
G0 X102.288 Y181.409
G0 X102.722 Y180.787
G1 F1800 X104.154 Y182.219 E1104.20055
G0 F9000 X104.72 Y182.219
G1 F1800 X102.722 Y180.221 E1104.47596
G0 F9000 X102.722 Y179.656
G1 F1800 X105.286 Y182.219 E1104.82932
G0 F9000 X105.851 Y182.219
G1 F1800 X102.722 Y179.09 E1105.26063
G0 F9000 X102.722 Y178.524
G1 F1800 X106.417 Y182.219 E1105.76997
G0 F9000 X106.983 Y182.219
G1 F1800 X102.722 Y177.958 E1106.35732
G0 F9000 X102.722 Y177.393
G1 F1800 X107.548 Y182.219 E1107.02255
G0 F9000 X108.114 Y182.219
G1 F1800 X102.722 Y176.827 E1107.7658
G0 F9000 X102.722 Y176.261
G1 F1800 X108.68 Y182.219 E1108.58707
G0 F9000 X109.245 Y182.219
G1 F1800 X102.722 Y175.696 E1109.48622
G0 F9000 X102.722 Y175.13
G1 F1800 X109.811 Y182.219 E1110.4634
G0 F9000 X110.377 Y182.219
G1 F1800 X102.722 Y174.564 E1111.51859
G0 F9000 X102.722 Y173.999
G1 F1800 X110.942 Y182.219 E1112.65166
G0 F9000 X111.508 Y182.219
G1 F1800 X102.722 Y173.433 E1113.86275
G0 F9000 X102.722 Y172.867
G1 F1800 X112.074 Y182.219 E1115.15186
G0 F9000 X112.639 Y182.219
G1 F1800 X102.722 Y172.302 E1116.51886
G0 F9000 X102.722 Y171.736
G1 F1800 X113.205 Y182.219 E1117.96387
G0 F9000 X113.771 Y182.219
G1 F1800 X102.722 Y171.17 E1119.4869
G0 F9000 X102.722 Y170.605
G1 F1800 X114.337 Y182.219 E1121.08788
G0 F9000 X114.902 Y182.219
G1 F1800 X102.722 Y170.039 E1122.76681
G0 F9000 X102.722 Y169.473
G1 F1800 X115.468 Y182.219 E1124.52377
G0 F9000 X116.034 Y182.219
G1 F1800 X102.722 Y168.908 E1126.35867
G0 F9000 X102.722 Y168.342
G1 F1800 X116.599 Y182.219 E1128.27152
G0 F9000 X117.165 Y182.219
G1 F1800 X102.722 Y167.776 E1130.26239
G0 F9000 X102.722 Y167.21
G1 F1800 X117.731 Y182.219 E1132.33129
G0 F9000 X118.296 Y182.219
G1 F1800 X102.722 Y166.645 E1134.47806
G0 F9000 X102.722 Y166.079
G1 F1800 X118.862 Y182.219 E1136.70285
G0 F9000 X119.428 Y182.219
G1 F1800 X102.722 Y165.513 E1139.00566
G0 F9000 X102.722 Y164.948
G1 F1800 X119.993 Y182.219 E1141.38636
G0 F9000 X120.559 Y182.219
G1 F1800 X102.722 Y164.382 E1143.84507
G0 F9000 X102.722 Y163.816
G1 F1800 X121.125 Y182.219 E1146.3818
G0 F9000 X121.69 Y182.219
G1 F1800 X102.722 Y163.251 E1148.99641
G0 F9000 X102.722 Y162.685
G1 F1800 X122.256 Y182.219 E1151.68905
G0 F9000 X122.822 Y182.219
G1 F1800 X102.722 Y162.119 E1154.4597
G0 F9000 X102.722 Y161.554
G1 F1800 X123.388 Y182.219 E1157.3083
G0 F9000 X123.953 Y182.219
G1 F1800 X102.722 Y160.988 E1160.23486
G0 F9000 X102.722 Y160.422
G1 F1800 X124.519 Y182.219 E1163.23943
G0 F9000 X125.085 Y182.219
G1 F1800 X102.722 Y159.857 E1166.32195
G0 F9000 X102.722 Y159.291
G1 F1800 X125.65 Y182.219 E1169.48242
G0 F9000 X126.216 Y182.219
G1 F1800 X102.722 Y158.725 E1172.72092
G0 F9000 X102.722 Y158.159
G1 F1800 X126.782 Y182.219 E1176.03743
G0 F9000 X127.347 Y182.219
G1 F1800 X102.722 Y157.594 E1179.43182
G0 F9000 X102.722 Y157.028
G1 F1800 X127.913 Y182.219 E1182.90424
G0 F9000 X128.479 Y182.219
G1 F1800 X102.722 Y156.462 E1186.45467
G0 F9000 X102.722 Y155.897
G1 F1800 X129.044 Y182.219 E1190.08298
G0 F9000 X129.61 Y182.219
G1 F1800 X102.722 Y155.331 E1193.78932
G0 F9000 X102.722 Y154.765
G1 F1800 X130.176 Y182.219 E1197.57367
G0 F9000 X130.741 Y182.219
G1 F1800 X102.722 Y154.2 E1201.4359
G0 F9000 X102.722 Y153.634
G1 F1800 X131.307 Y182.219 E1205.37616
G0 F9000 X131.873 Y182.219
G1 F1800 X102.722 Y153.068 E1209.39443
G0 F9000 X102.722 Y152.503
G1 F1800 X132.438 Y182.219 E1213.49058
G0 F9000 X133.004 Y182.219
G1 F1800 X102.722 Y151.937 E1217.66476
G0 F9000 X102.722 Y151.371
G1 F1800 X133.57 Y182.219 E1221.91695
G0 F9000 X134.136 Y182.219
G1 F1800 X102.722 Y150.806 E1226.24709
G0 F9000 X102.722 Y150.24
G1 F1800 X134.701 Y182.219 E1230.65519
G0 F9000 X135.267 Y182.219
G1 F1800 X102.722 Y149.674 E1235.1413
G0 F9000 X102.722 Y149.109
G1 F1800 X135.833 Y182.219 E1239.70536
G0 F9000 X136.398 Y182.219
G1 F1800 X102.722 Y148.543 E1244.34738
G0 F9000 X102.722 Y147.977
G1 F1800 X136.964 Y182.219 E1249.06741
G0 F9000 X137.53 Y182.219
G1 F1800 X102.722 Y147.411 E1253.86546
G0 F9000 X102.722 Y146.846
G1 F1800 X138.095 Y182.219 E1258.7414
G0 F9000 X138.661 Y182.219
G1 F1800 X102.722 Y146.28 E1263.69535
G0 F9000 X102.722 Y145.714
G1 F1800 X139.227 Y182.219 E1268.72733
G0 F9000 X139.792 Y182.219
